shared/images/iconfont/kb-iconfont-open-browser-16.svg

<?xml version="1.0" encoding="UTF-8"?>
<svg width="16px" height="16px" viewBox="0 0 16 16" version="1.1" xmlns="http://www.w3.org/2000/svg" xmlns:xlink="http://www.w3.org/1999/xlink">
    <!-- Generator: sketchtool 49.3 (51167) - http://www.bohemiancoding.com/sketch -->
    <title>D4F8BCEA-EB05-43B6-99F4-B60896EA8099</title>
    <desc>Created with sketchtool.</desc>
    <defs></defs>
    <g id="Colors,-icons" stroke="none" stroke-width="1" fill="none" fill-rule="evenodd">
        <g id="Icons-2" transform="translate(-491.000000, -306.000000)">
            <g id="kb-iconfont-open-browser-16" transform="translate(491.000000, 306.000000)">
                <g id="kb-iconfont-open-browser">
                    <rect id="icon-area" fill="#D8D8D8" opacity="0" x="0" y="0" width="16" height="16"></rect>
                    <path d="M9.76022,1 C9.47714287,1.00006044 9.22196616,1.17060925 9.11364542,1.43214181 C9.00532467,1.69367437 9.06518446,1.99470402 9.26532,2.1949 L10.545179,3.474927 L6.585461,7.434645 C6.228037,7.78755436 6.08706357,8.3048963 6.21603807,8.79034714 C6.34501258,9.27579797 6.72416703,9.65495242 7.20961786,9.78392693 C7.6950687,9.91290143 8.21241064,9.771928 8.56532,9.414504 L12.525038,5.454786 L13.805065,6.734645 C14.005261,6.93478054 14.3062906,6.99464033 14.5678232,6.88631958 C14.8293557,6.77799884 14.9999046,6.52282213 14.999965,6.239745 L14.999965,1 L9.76022,1 Z M13.95,10.1 C13.3703633,10.1006327 12.9006327,10.5703633 12.9,11.15 L12.9,12.69014 C12.8997344,12.8059323 12.8059323,12.8997344 12.69014,12.9 L3.309832,12.9 C3.19405224,12.8997152 3.10026935,12.8059198 3.1,12.69014 L3.1,3.30986 C3.10026943,3.19406658 3.19407357,3.10026557 3.309867,3.1 L4.85,3.1 C5.42989899,3.1 5.9,2.62989899 5.9,2.05 C5.9,1.47010101 5.42989899,1 4.85,1 L3.309867,1 C2.03480022,1.00153127 1.00153513,2.03479323 1,3.30986 L1,12.69014 C1.00153509,13.9651931 2.03477889,14.9984495 3.309832,15 L12.690105,15 C13.9651843,14.998488 14.9984687,13.9652193 15,12.69014 L15,11.15 C14.9993673,10.5703633 14.5296367,10.1006327 13.95,10.1 Z" id="share" fill="#000000" fill-rule="nonzero"></path>
                </g>
            </g>
        </g>
    </g>
</svg>

<svg xmlns="http://www.w3.org/2000/svg" width="16" height="16" viewBox="0 0 16 16">
    <path fill="#000" fill-rule="nonzero" d="M9.76 1a.7.7 0 0 0-.495 1.195l1.28 1.28-3.96 3.96a1.4 1.4 0 1 0 1.98 1.98l3.96-3.96 1.28 1.28A.7.7 0 0 0 15 6.24V1H9.76zm4.19 9.1c-.58 0-1.05.47-1.05 1.05v1.54a.21.21 0 0 1-.21.21H3.31a.21.21 0 0 1-.21-.21V3.31a.21.21 0 0 1 .21-.21h1.54a1.05 1.05 0 1 0 0-2.1H3.31A2.313 2.313 0 0 0 1 3.31v9.38A2.313 2.313 0 0 0 3.31 15h9.38A2.313 2.313 0 0 0 15 12.69v-1.54c0-.58-.47-1.05-1.05-1.05z"/>
</svg>
